X: 71
T:Late Evening Reel
% Nottingham Music Database
S:Ralph Page, via PR
M:4/4
L:1/4
K:D
F/2G/2|"D"A/2d/2c/2d/2 f/2d/2c/2d/2|a/2d/2c/2d/2 f/2d/2
c/2d/2|"D"A/2d/2c/2d/2 f/2d/2c/2d/2|"Em"g/2f/2e/2d/2 "A7"cF/2G/2|\
"D"A/2d/2c/2d/2 f/2d/2c/2d/2|"D"a/2d/2c/2d/2 f/2d/2
c/2d/2|"A"A/2B/2c/2d/2 "A7"e/2f/2g/2e/2|"D"df d::
f/2g/2|"D"a3/2b/2 "A"a/2f/2g/2e/2|"D"d/2c/2d/2\
e/2 "D7"f/2d/2A/2F/2|"G"G/2B/2e/2d/2 "D"F/2A/2e/2d/2|\
"Em"c/2e/2g/2f/2 "A"ef/2g/2|
"D"a3/2b/2 "A"a/2f/2g/2e/2|"D"d/2c/2d/2e/2 "D7"f/2d/2A/2F/2|\
"G"G/2B/2e/2d/2 "D"F/2A/2e/2d/2|"A7"c/2g/2e/2c/2 "D"d:|


